en/_assets/code-assistant/chat_crossed.svg

<svg width="24" height="24" viewBox="0 0 24 24" fill="none" xmlns="http://www.w3.org/2000/svg">
<path d="M7 14C6.71667 14 6.47933 13.904 6.288 13.712C6.09667 13.52 6.00067 13.2827 6 13C5.99933 12.7173 6.09533 12.48 6.288 12.288C6.48067 12.096 6.718 12 7 12C7.282 12 7.51967 12.096 7.713 12.288C7.90633 12.48 8.002 12.7173 8 13C7.998 13.2827 7.902 13.5203 7.712 13.713C7.522 13.9057 7.28467 14.0013 7 14ZM22 4V16.45C22 16.7333 21.904 16.971 21.712 17.163C21.52 17.355 21.2827 17.4507 21 17.45C20.75 17.45 20.521 17.3667 20.313 17.2C20.105 17.0333 20.0007 16.7833 20 16.45V4H7.275C6.94167 4 6.69167 3.896 6.525 3.688C6.35833 3.48 6.275 3.25067 6.275 3C6.275 2.74933 6.35833 2.52033 6.525 2.313C6.69167 2.10567 6.94167 2.00133 7.275 2H20C20.55 2 21.021 2.196 21.413 2.588C21.805 2.98 22.0007 3.45067 22 4ZM17 11H14.275C13.9417 11 13.6917 10.896 13.525 10.688C13.3583 10.48 13.275 10.2507 13.275 10C13.275 9.74933 13.3583 9.52033 13.525 9.313C13.6917 9.10567 13.9417 9.00133 14.275 9H17C17.2833 9 17.521 9.096 17.713 9.288C17.905 9.48 18.0007 9.71733 18 10C17.9993 10.2827 17.9033 10.5203 17.712 10.713C17.5207 10.9057 17.2833 11.0013 17 11ZM6 18L3.7 20.3C3.38333 20.6167 3.02067 20.6877 2.612 20.513C2.20333 20.3383 1.99933 20.0257 2 19.575V4.8L1.4 4.2C1.21667 4.01667 1.125 3.78333 1.125 3.5C1.125 3.21667 1.21667 2.98333 1.4 2.8C1.58333 2.61667 1.81667 2.525 2.1 2.525C2.38333 2.525 2.61667 2.61667 2.8 2.8L21.2 21.2C21.3833 21.3833 21.4793 21.6127 21.488 21.888C21.4967 22.1633 21.4007 22.4007 21.2 22.6C21.0167 22.7833 20.7833 22.875 20.5 22.875C20.2167 22.875 19.9833 22.7833 19.8 22.6L15.15 18H6ZM7 11C6.71667 11 6.47933 10.904 6.288 10.712C6.09667 10.52 6.00067 10.2827 6 10C5.99933 9.71733 6.09533 9.48 6.288 9.288C6.48067 9.096 6.718 9 7 9C7.282 9 7.51967 9.096 7.713 9.288C7.90633 9.48 8.002 9.71733 8 10C7.998 10.2827 7.902 10.5203 7.712 10.713C7.522 10.9057 7.28467 11.0013 7 11ZM17 8H11C10.7167 8 10.4793 7.904 10.288 7.712C10.0967 7.52 10.0007 7.28267 10 7C9.99933 6.71733 10.0953 6.48 10.288 6.288C10.4807 6.096 10.718 6 11 6H17C17.2833 6 17.521 6.096 17.713 6.288C17.905 6.48 18.0007 6.71733 18 7C17.9993 7.28267 17.9033 7.52033 17.712 7.713C17.5207 7.90567 17.2833 8.00133 17 8ZM4 6.8V17.125L5.15 16H13.2L4 6.8Z" fill="#787878"/>
</svg>

<svg xmlns="http://www.w3.org/2000/svg" width="24" height="24" fill="none" viewBox="0 0 24 24">
    <path fill="#787878" d="M7 14a.965.965 0 0 1-.712-.288A.972.972 0 0 1 6 13c0-.283.095-.52.288-.712A.97.97 0 0 1 7 12c.282 0 .52.096.713.288.193.192.289.43.287.712a.986.986 0 0 1-.288.713A.952.952 0 0 1 7 14ZM22 4v12.45a.968.968 0 0 1-.288.713.964.964 0 0 1-.712.287c-.25 0-.479-.083-.687-.25-.208-.167-.312-.417-.313-.75V4H7.275c-.333 0-.583-.104-.75-.312a1.071 1.071 0 0 1 0-1.375c.167-.207.417-.312.75-.313H20c.55 0 1.021.196 1.413.588.392.392.588.863.587 1.412Zm-5 7h-2.725c-.333 0-.583-.104-.75-.312a1.07 1.07 0 0 1 0-1.375c.167-.207.417-.312.75-.313H17c.283 0 .521.096.713.288.192.192.288.43.287.712 0 .283-.097.52-.288.713A.957.957 0 0 1 17 11ZM6 18l-2.3 2.3c-.317.317-.68.388-1.088.213-.409-.175-.613-.487-.612-.938V4.8l-.6-.6a.948.948 0 0 1-.275-.7.95.95 0 0 1 .275-.7.948.948 0 0 1 .7-.275.95.95 0 0 1 .7.275l18.4 18.4a.98.98 0 0 1 .288.688.925.925 0 0 1-.288.712.948.948 0 0 1-.7.275.948.948 0 0 1-.7-.275L15.15 18H6Zm1-7a.965.965 0 0 1-.712-.288A.972.972 0 0 1 6 10c0-.283.095-.52.288-.712A.97.97 0 0 1 7 9c.282 0 .52.096.713.288.193.192.289.43.287.712a.986.986 0 0 1-.288.713A.952.952 0 0 1 7 11Zm10-3h-6a.965.965 0 0 1-.712-.288A.973.973 0 0 1 10 7c0-.283.095-.52.288-.712A.97.97 0 0 1 11 6h6c.283 0 .521.096.713.288.192.192.288.43.287.712 0 .283-.097.52-.288.713A.957.957 0 0 1 17 8ZM4 6.8v10.325L5.15 16h8.05L4 6.8Z"/>
</svg>
